icon-themes/breeze_svg/cmd/sc_convertinto3d.svg

<svg xmlns="http://www.w3.org/2000/svg" viewBox="0 0 16 16">
 <path 
     style="fill:#b3b3b3" 
     d="M 2 4 L 2 14 L 12 14 L 12 4 L 2 4 z "
     />
 <path 
     style="fill:#4d4d4d" 
     d="M 4 2 L 2 4 L 12 4 L 12 14 L 14 12 L 14 2 L 4 2 z "
     />
 <path 
     style="fill:#1d99f3" 
     d="M 5.5 8 C 4.115 8 3 9.115 3 10.5 C 3 10.9334 3.12 11.3328 3.3125 11.6875 L 4.0625 10.9375 C 4.0215 10.8004 4 10.6508 4 10.5 C 4 9.669 4.669 9 5.5 9 C 5.65079 9 5.80041 9.0225 5.9375 9.0625 L 6.6875 8.3125 C 6.33285 8.1201 5.93343 8 5.5 8 z M 7.6875 9.3144531 L 6.9375 10.0625 C 6.9785 10.1996 7 10.3492 7 10.5 C 7 11.331 6.331 12 5.5 12 C 5.34921 12 5.19959 11.979453 5.0625 11.939453 L 4.3125 12.689453 C 4.66714 12.881853 5.06657 13.001953 5.5 13.001953 C 6.885 13.001953 8 11.886953 8 10.501953 C 8 10.068553 7.88 9.6691531 7.6875 9.3144531 z "
     />
 </svg>

<svg viewBox="0 0 16 16" xmlns="http://www.w3.org/2000/svg"><path d="m2 4v10h10v-10z" fill="#b3b3b3"/><path d="m4 2-2 2h10v10l2-2v-10z" fill="#4d4d4d"/><path d="m5.5 8c-1.385 0-2.5 1.115-2.5 2.5 0 .4334.12.8328.3125 1.1875l.75-.75c-.041-.1371-.0625-.2867-.0625-.4375 0-.831.669-1.5 1.5-1.5.15079 0 .30041.0225.4375.0625l.75-.75c-.35465-.1924-.75407-.3125-1.1875-.3125zm2.1875 1.3144531-.75.7480469c.041.1371.0625.2867.0625.4375 0 .831-.669 1.5-1.5 1.5-.15079 0-.30041-.020547-.4375-.060547l-.75.75c.35464.1924.75407.3125 1.1875.3125 1.385 0 2.5-1.115 2.5-2.5 0-.4334-.12-.8327999-.3125-1.1874999z" fill="#1d99f3"/></svg>
